X:267
T: DIE TROMMEL RUFT UND ICH MUSS FORT
N: E1409
O: Europa, Mitteleuropa, Deutschland, Hessen, Wetzlar, Schwalbach
R: Staende -, Soldaten - Lied, Krieg
M: 3/4
L: 1/16
K: F
C2 | A3GF3ED3C | C4z6
C2 | F2C2F3C(3F2A2c2 | c4z6
c2 | d3cG3Bd3c | A4z6
F2 | E3DC3dc3B | A4z4
C4 | A8A2B2 | c8
B4 | A2F2d2c2B3G | F8z2

@@@ Tune index: 4951
